X: 63
T: Maicai
L: 1/16
M: 2/4
K: F
f2 c c f2 c2 [I:setbarnb 1]| 
c B c d c2 G2 | 
c2 G2 c2 A G | 
F2> A2G4 | 
F D F2 c2 A c | 
G2 c2 G2 F D | 
C2 F2 G F F D | 
C2> B,2C4 | 
A G F AG4 | 
F D F2 c2 A c | 
G2 c2 G2 F D | 
C2 F2 G F F D | 
C2> B,2C4 |]

@@@ Tune index: 8937
